static/card-icons/gdpr.svg

<svg height="682.66669" viewBox="0 0 682.66669 682.66669" width="682.66669" xmlns="http://www.w3.org/2000/svg"><g fill="none" stroke="#000" stroke-linecap="round" stroke-linejoin="round" stroke-miterlimit="10"><path d="m0 0h-231c-16.568 0-30 13.432-30 30v342c0 16.568 13.432 30 30 30h422c16.568 0 30-13.432 30-30v-342c0-16.568-13.432-30-30-30h-31" stroke-width="30" transform="matrix(1.3333333 0 0 -1.3333333 367.9999908 556.0000065)"/><path d="m0 0h170" stroke-width="30" transform="matrix(1.3333333 0 0 -1.3333333 101.3333308 300.0000129)"/><path d="m0 0h170" stroke-width="30" transform="matrix(1.3333333 0 0 -1.3333333 101.3333308 380.0000109)"/><path d="m0 0h110" stroke-width="30" transform="matrix(1.3333333 0 0 -1.3333333 101.3333308 460.0000089)"/><g stroke-width="25"><path d="m0 0c-7.183 4.852-15.841 7.685-25.16 7.685-24.853 0-45-20.147-45-45s20.147-45 45-45c24.852 0 38.846 20.147 38.846 45h-26.923" transform="matrix(1.3333333 0 0 -1.3333333 188.21359529466 106.24681774383)"/><path d="m0 0v-88.445" transform="matrix(1.3333333 0 0 -1.3333333 261.4439934639 96.12441799689)"/><path d="m0 0c0-24.798-13.763-44.42-35.599-44.802-7.268-.127-26.052-.198-26.052-.198s-.118 32.599-.118 45.099c0 10.266-.065 44.901-.065 44.901h25.489c23.95 0 36.345-20.202 36.345-45z" transform="matrix(1.3333333 0 0 -1.3333333 343.8893247361 156.0000165)"/><path d="m0 0 37.806-42.955" transform="matrix(1.3333333 0 0 -1.3333333 537.59238656019 158.72654976517)"/><path d="m0 0v-90" transform="matrix(1.3333333 0 0 -1.3333333 523.12105358864 96.000018)"/><path d="m0 0c0-12.918-11.327-23.39-24.714-23.39-6.639 0-23.749-.103-23.749-.103s-.107 16.982-.107 23.493c0 5.348-.06 23.39-.06 23.39h23.916c13.387 0 24.714-10.472 24.714-23.39z" transform="matrix(1.3333333 0 0 -1.3333333 587.9999853 127.18681722033)"/><path d="m0 0v-90" transform="matrix(1.3333333 0 0 -1.3333333 400.69665664925 96.000018)"/><path d="m0 0c0-14.027-11.868-25.398-25.896-25.398-6.956 0-24.884-.112-24.884-.112s-.113 18.439-.113 25.51c0 5.807-.062 25.398-.062 25.398h25.059c14.028-0 25.896-11.371 25.896-25.398z" transform="matrix(1.3333333 0 0 -1.3333333 468.63665495075 129.86388382007)"/></g><path d="m0 0h120c11.046 0 20-8.954 20-20v-100c0-11.046-8.954-20-20-20h-120c-11.046 0-20 8.954-20 20v100c0 11.046 8.954 20 20 20z" stroke-width="30" transform="matrix(1.3333333 0 0 -1.3333333 394.6666568 476.0000085)"/><path d="m0 0c33.137 0 60-26.863 60-60v-40h-120v40c0 33.137 26.863 60 60 60z" stroke-width="30" transform="matrix(1.3333333 0 0 -1.3333333 474.6666548 342.6666785)"/><path d="m0 0 21.213-21.213 42.426 42.426" stroke-width="30" transform="matrix(1.3333333 0 0 -1.3333333 432.24092252731 569.3333395)"/></g></svg>

<?xml version="1.0" encoding="UTF-8" standalone="no"?>
<!-- Created with Inkscape (http://www.inkscape.org/) -->

<svg
   version="1.1"
   id="svg1173"
   xml:space="preserve"
   width="682.66669"
   height="682.66669"
   viewBox="0 0 682.66669 682.66669"
   xmlns="http://www.w3.org/2000/svg"
   xmlns:svg="http://www.w3.org/2000/svg"><defs
     id="defs1177"><clipPath
       clipPathUnits="userSpaceOnUse"
       id="clipPath1187"><path
         d="M 0,512 H 512 V 0 H 0 Z"
         id="path1185" /></clipPath></defs><g
     id="g1179"
     transform="matrix(1.3333333,0,0,-1.3333333,0,682.66667)"><g
       id="g1181"><g
         id="g1183"
         clipPath="url(#clipPath1187)"><g
           id="g1189"
           transform="translate(276,95)"><path
             d="m 0,0 h -231 c -16.568,0 -30,13.432 -30,30 v 342 c 0,16.568 13.432,30 30,30 h 422 c 16.568,0 30,-13.432 30,-30 V 30 C 221,13.432 207.568,0 191,0 h -31"
             style="fill:none;stroke:#000000;stroke-width:30;stroke-linecap:round;stroke-linejoin:round;stroke-miterlimit:10;stroke-dasharray:none;stroke-opacity:1"
             id="path1191" /></g><g
           id="g1193"
           transform="translate(76,287)"><path
             d="M 0,0 H 170"
             style="fill:none;stroke:#000000;stroke-width:30;stroke-linecap:round;stroke-linejoin:round;stroke-miterlimit:10;stroke-dasharray:none;stroke-opacity:1"
             id="path1195" /></g><g
           id="g1197"
           transform="translate(76,227)"><path
             d="M 0,0 H 170"
             style="fill:none;stroke:#000000;stroke-width:30;stroke-linecap:round;stroke-linejoin:round;stroke-miterlimit:10;stroke-dasharray:none;stroke-opacity:1"
             id="path1199" /></g><g
           id="g1201"
           transform="translate(76,167)"><path
             d="M 0,0 H 110"
             style="fill:none;stroke:#000000;stroke-width:30;stroke-linecap:round;stroke-linejoin:round;stroke-miterlimit:10;stroke-dasharray:none;stroke-opacity:1"
             id="path1203" /></g><g
           id="g1205"
           transform="translate(141.1602,432.3149)"><path
             d="m 0,0 c -7.183,4.852 -15.841,7.685 -25.16,7.685 -24.853,0 -45,-20.147 -45,-45 0,-24.853 20.147,-45 45,-45 24.852,0 38.846,20.147 38.846,45 h -26.923"
             style="fill:none;stroke:#000000;stroke-width:25;stroke-linecap:round;stroke-linejoin:round;stroke-miterlimit:10;stroke-dasharray:none;stroke-opacity:1"
             id="path1207" /></g><g
           id="g1209"
           transform="translate(196.083,439.9067)"><path
             d="M 0,0 V -88.445"
             style="fill:none;stroke:#000000;stroke-width:25;stroke-linecap:round;stroke-linejoin:round;stroke-miterlimit:10;stroke-dasharray:none;stroke-opacity:1"
             id="path1211" /></g><g
           id="g1213"
           transform="translate(257.917,395)"><path
             d="M 0,0 C 0,-24.798 -13.763,-44.42 -35.599,-44.802 -42.867,-44.929 -61.651,-45 -61.651,-45 c 0,0 -0.118,32.599 -0.118,45.099 0,10.266 -0.065,44.901 -0.065,44.901 h 25.489 C -12.395,45 0,24.798 0,0 Z"
             style="fill:none;stroke:#000000;stroke-width:25;stroke-linecap:round;stroke-linejoin:round;stroke-miterlimit:10;stroke-dasharray:none;stroke-opacity:1"
             id="path1215" /></g><g
           id="g1217"
           transform="translate(403.1943,392.9551)"><path
             d="M 0,0 37.806,-42.955"
             style="fill:none;stroke:#000000;stroke-width:25;stroke-linecap:round;stroke-linejoin:round;stroke-miterlimit:10;stroke-dasharray:none;stroke-opacity:1"
             id="path1219" /></g><g
           id="g1221"
           transform="translate(392.3408,440)"><path
             d="M 0,0 V -90"
             style="fill:none;stroke:#000000;stroke-width:25;stroke-linecap:round;stroke-linejoin:round;stroke-miterlimit:10;stroke-dasharray:none;stroke-opacity:1"
             id="path1223" /></g><g
           id="g1225"
           transform="translate(441,416.6099)"><path
             d="m 0,0 c 0,-12.918 -11.327,-23.39 -24.714,-23.39 -6.639,0 -23.749,-0.103 -23.749,-0.103 0,0 -0.107,16.982 -0.107,23.493 0,5.348 -0.06,23.39 -0.06,23.39 h 23.916 C -11.327,23.39 0,12.918 0,0 Z"
             style="fill:none;stroke:#000000;stroke-width:25;stroke-linecap:round;stroke-linejoin:round;stroke-miterlimit:10;stroke-dasharray:none;stroke-opacity:1"
             id="path1227" /></g><g
           id="g1229"
           transform="translate(300.5225,440)"><path
             d="M 0,0 V -90"
             style="fill:none;stroke:#000000;stroke-width:25;stroke-linecap:round;stroke-linejoin:round;stroke-miterlimit:10;stroke-dasharray:none;stroke-opacity:1"
             id="path1231" /></g><g
           id="g1233"
           transform="translate(351.4775,414.6021)"><path
             d="m 0,0 c 0,-14.027 -11.868,-25.398 -25.896,-25.398 -6.956,0 -24.884,-0.112 -24.884,-0.112 0,0 -0.113,18.439 -0.113,25.51 0,5.807 -0.062,25.398 -0.062,25.398 h 25.059 C -11.868,25.398 0,14.027 0,0 Z"
             style="fill:none;stroke:#000000;stroke-width:25;stroke-linecap:round;stroke-linejoin:round;stroke-miterlimit:10;stroke-dasharray:none;stroke-opacity:1"
             id="path1235" /></g><g
           id="g1237"
           transform="translate(296,155)"><path
             d="m 0,0 h 120 c 11.046,0 20,-8.954 20,-20 v -100 c 0,-11.046 -8.954,-20 -20,-20 H 0 c -11.046,0 -20,8.954 -20,20 v 100 c 0,11.046 8.954,20 20,20 z"
             style="fill:none;stroke:#000000;stroke-width:30;stroke-linecap:round;stroke-linejoin:round;stroke-miterlimit:10;stroke-dasharray:none;stroke-opacity:1"
             id="path1239" /></g><g
           id="g1241"
           transform="translate(356,255)"><path
             d="m 0,0 v 0 c 33.137,0 60,-26.863 60,-60 v -40 H -60 v 40 c 0,33.137 26.863,60 60,60 z"
             style="fill:none;stroke:#000000;stroke-width:30;stroke-linecap:round;stroke-linejoin:round;stroke-miterlimit:10;stroke-dasharray:none;stroke-opacity:1"
             id="path1243" /></g><g
           id="g1245"
           transform="translate(324.1807,85)"><path
             d="M 0,0 21.213,-21.213 63.639,21.213"
             style="fill:none;stroke:#000000;stroke-width:30;stroke-linecap:round;stroke-linejoin:round;stroke-miterlimit:10;stroke-dasharray:none;stroke-opacity:1"
             id="path1247" /></g></g></g></g></svg>
